X:1
T:Onward, Christian!
T:W. N. Manchester, 1897
T:Onward, Christian!
T:Public Domain
T:Public Domain
C:W. N. Manchester, 1897
Z:Public Domain
%%score ( 1 2 ) ( 3 4 )
L:1/8
M:4/4
K:E
V:1 treble 
V:2 treble 
V:3 bass 
V:4 bass 
V:1
 [EB]2 [B,E]2 [B,D]2 (CD) | [B,E]2 [EA]2 [EG]2 [DF]2 | [EB]2 [^EG]2 [FA]2 [DF]2 | %3
w: 1.~On- ward! Christ- ian, *|the con- flict, Hark!|the sound of bat-|
w: 2.~Take ye, there- fore, *|whole ar- mor, That|ye stand in e-|
w: 3.~Let thy feet be *|with san- dals Of|the glad, good news|
w: 4.~Take the hel- met *|sal- va- tion, And|the sword the Spir-|
 [CE]2 (GF) (E2 D2) | [B,B]2 [B,E]2 [B,D]2 (CD) | [B,E]2 [EA]2 [EG]2 [DF]2 | %6
w: tle near, * Take *|thy Lord hath giv’n *|Word of truth for-|
w: vil days, * Girt *|and as a breast- *|Right- eous- ness in|
w: of peace, * Bring- *|ings of sal- va- *|And the time when|
w: it wields, * Watch *|yet rest as- sur- *|God Him- self from|
 [EB]2 [D^B]2 [Ec]2 (de) | [EB]2 (FG) E4 ||"^Refrain" [EB]4 [DB]4 | [EB]4 [DB]4 | %10
w: ev- er dear. * *||||
w: all thy ways. On- *|on- ward! * Join|vic- to-|rious throng,|
w: wars shall cease. * *||||
w: per- il shields. * *||||
 [GB]2 (FE) [Gc]2 [Ec]2 | [Ac]2 (^Bc) (A2 GF) | [Ee]2 [EB]2 [^Ec]2 G2 | [DA]2 (GF) [EB]2 E2 | %14
w: ||||
w: Al- le- * lu- ia!|le- lu- * ia! * *|King shall be our||
w: ||||
w: ||||
 [EF]2 [E^^F]2 [EG]2 (^FE) | [EF]2 (FG) [B,E]4 |] %16
w: ||
w: ||
w: ||
w: ||
V:2
 x6 B,2 | x8 | x8 | x2 ^A,2 B,4 | x6 B,2 | x8 | x6 E2 | x2 D2 E4 || x8 | x8 | x2 B2 x4 | x2 F2 d4 | %12
w: to|||the sword|thee,||||||||
w: God’s|||with truth,|plate,||ward!|the glad,|||Al-|To our|
w: shod|||ing tid-|tion,||||||||
w: of|||and pray,|ed||||||||
 x6 G2 | x2 D2 x E2 x | x6 C2 | x2 D2 x4 |] %16
w: ||||
w: song.||||
w: ||||
w: ||||
V:3
 [E,G,]2 G,2 [F,A,]2 [B,,A,]2 | [G,,G,]2 [C,A,]2 [B,,B,]2 [A,,B,]2 | %2
w: ~ ~ ~ ~|~ ~ ~ ~|
 [G,,B,]2 [C,B,]2 [F,,C]2 ([B,,B,][^B,,A,]) | [C,G,]2 [F,,E,]2 (G,2 F,2) | %4
w: ~ ~ ~ ~ *|~ ~ ~ *|
 [E,G,]2 G,2 [F,A,]2 [B,,A,]2 | [G,,G,]2 [C,A,]2 [B,,B,]2 [A,,B,]2 | %6
w: ~ ~ ~ ~|~ ~ ~ ~|
 [G,,B,]2 [G,,G,]2 (E,G,) [^A,,^^F,]2 | [B,,G,]2 [B,,A,]2 [E,G,]4 || %8
w: ~ ~ ~ * ~|ward march- ing,|
 [G,B,]2 [E,G,]2 [F,A,]2 [B,,F,]2 | [G,B,]2 [E,G,]2 [F,A,]2 [B,,F,]2 | %10
w: on- ward march- ing||
 [E,G,]2 [G,B,]2 [C,E]2 [G,C]2 | [F,C]2 (DC) (B,B,,C,D,) | [E,G,]2 [G,B,]2 [C,C]2 [^E,C]2 | %13
w: |||
 [F,,F,B,]2 [B,,B,]2 [G,,B,]2 [C,G,]2 | [A,,C]2 [^A,,C]2 [B,,B,]2 [C,^A,]2 | %15
w: ||
 [B,,B,]2 [B,,A,]2 [E,G,]4 |] %16
w: |
V:4
 x2 G,2 x4 | x8 | x8 | x4 B,,4 | x2 G,2 x4 | x8 | x4 ^A,,2 x2 | x8 || x8 | x8 | x8 | x2 A,2 B,4 | %12
w: ~|||~|~||On-||||||
 x8 | x8 | x8 | x8 |] %16
w: ||||

